X: 26337
T: Mendiokerra
R: jig
M: 6/8
K: Dminor
AGA|d2 A2 c2|AGF GFD|C2 D2 F2|GFG AGA|
d2 A2 c2|AGF G2F|1 EF D2 DE|C2z AGA:|2 EFG FEC|D2z FEF||
G2F EDC|FGA cAF|A3 cAG|FGA GFE|
D2D EFG|AGF G2F|EF D2 DE|C2z FEF|
G2F EDC|FGA cAF|ABA BAG|FGA GFE|
D2D EFG|AGF G2F|EFG FEC|D2z||

